X:1
T:Title
%%score { ( 1 3 ) | ( 2 4 ) }
L:1/8
M:4/4
K:Bb
V:1 treble nm="Grand Piano"
V:3 treble 
V:2 bass 
V:4 bass 
V:1
 z4 z2[Q:1/4=108] [B,D]>[CE] | [DF]2 [DF]>[_D=E] [=DF]2 [DB]>[_Ec] | %2
 [Fd]2 [Fd]>[=E_d] [F=d]2 [Fd]>[_Ec] | [DB] [DB]2 [FA] [EG]2 [EB]2 | [DF]6 [B,D]>[CE] | %5
 [DF]2 [DF]>[_D=E] [=DF]2 [DB]>[_Ec] | [Fd]2 [Fd]>[=E_d] [F=d]2 [Fd][Fd] | %7
 [Fc] [Fc]2 [DGB] [CFA]2 [B,=EG]2 |[M:3/4] [Ec]6 |[M:1/4] [DB][Ec] | %10
[M:4/4] [Fd] [Fd]2 [Fd] [Ge]2 [Fd]2 |[M:3/4] c6 |[M:1/4] FA |[M:4/4] c c2 =B d2 c2 | B6 z2 | %15
 G>^F G>A B2 A>G |[M:9/8] [DF]>[_D=E][=DF]- [DF]/[DB]/ [Fd]2- [Fd][Fd][Fe] | %17
[M:4/4] [Ff] [Ff]2 [B,GB] [FBd]2 [EAc]2 |[M:3/4] B6 |] %19
V:2
 z4 z2 [B,,F,]>[B,,F,] | [B,,B,]2 [B,,B,]>[B,,B,] [B,,B,]2 [B,,B,]>[B,,B,] | %2
 [B,,B,]2 [B,,B,]>[B,,B,] [B,,B,]2 [B,,B,]>[B,,B,] | [B,,F,] [B,,F,]2 [D,B,] [E,B,]2 [E,G,]2 | %4
 [B,,B,]6 [B,,F,]>[B,,F,] | [B,,B,]2 [B,,B,]>[B,,B,] [B,,B,]2 [B,,B,]>[B,,B,] | %6
 [B,,B,]2 [B,,B,]>[B,,B,] [B,,B,]2 [B,,B,][B,,B,] | [C,A,] [C,A,]2 C, C,2 C,2 |[M:3/4] [F,A,]6 | %9
[M:1/4] [B,,B,][B,,B,] |[M:4/4] [B,,B,] [B,,B,]2 [B,,B,] [B,,B,]2 [B,,B,]2 | %11
[M:3/4] [F,A,F]2 [G,B,]2 [F,A,]2 |[M:1/4] [F,A,E][F,CE] | %13
[M:4/4] [F,A,E] [F,A,E]2 [F,_A,D] [F,=A,F]2 [F,A,E]2 | z2 G,2 F,2 [B,,F,]>[D,B,] | %15
 [E,B,E]>[E,A,E] [E,B,E]>[E,A,E] [E,G,E]2 [E,A,E]>[E,B,E] | %16
[M:9/8] [B,,B,]>[B,,B,][B,,B,]- [B,,B,]/[B,,B,]/ [B,,B,]2- [B,,B,][B,,B,][C,A,] | %17
[M:4/4] [D,B,] [D,B,]2 E, F,2 F,,2 |[M:3/4] z2 E2 D2 |] %19
V:3
 x8 | x8 | x8 | x8 | x8 | x8 | x8 | x8 |[M:3/4] x6 |[M:1/4] x2 |[M:4/4] x8 |[M:3/4] z2 =E2 _E2 | %12
[M:1/4] x2 |[M:4/4] x8 | [B,D]2 E2 D2 [DB]>[FA] | x8 |[M:9/8] x9 |[M:4/4] x8 |[M:3/4] D2 G2 F2 |] %19
V:4
 x8 | x8 | x8 | x8 | x8 | x8 | x8 | x8 |[M:3/4] x6 |[M:1/4] x2 |[M:4/4] x8 |[M:3/4] x6 | %12
[M:1/4] x2 |[M:4/4] x8 | B,,6 z2 | x8 |[M:9/8] x9 |[M:4/4] x8 |[M:3/4] B,,6 |] %19

